synths/sGBP.svg

<svg width="480" height="480" viewBox="0 0 480 480" fill="none" xmlns="http://www.w3.org/2000/svg"><circle cx="240" cy="240" r="240" fill="url(#paint0_linear)"/><path d="M413.332 74h-44.615c-26.479 0-49.238 10.625-68.278 31.874L246.427 172h98.441l16.957-20.643c3.287-3.762 7.334-5.647 12.149-5.647h86.795a236.19 236.19 0 00-3.128-7h-83.667c-6.927 0-12.865 2.828-17.42 8.042l-.07.08L341.559 165h-80.376l44.574-54.572C323.562 90.611 344.443 81 368.717 81h51.061a240.48 240.48 0 00-6.446-7zM66.667 406h45.017c26.479 0 49.239-10.732 68.278-32.205L233.888 308h-98.686l-16.626 20.303c-3.508 3.771-7.554 5.648-12.149 5.648H19.086a238.894 238.894 0 003.114 7h84.227c6.778 0 12.614-2.87 17.274-7.88l.151-.162L138.518 315H219.1l-44.464 54.252C156.819 389.299 135.94 399 111.684 399H60.221a240.688 240.688 0 006.446 7zm394.243-72.04h-86.936c-4.603 0-8.535-1.77-11.822-5.317L345.245 308h-98.397l53.918 65.795C319.585 395.268 342.238 406 368.717 406h44.615a239.704 239.704 0 006.446-7h-51.061c-24.257 0-45.021-9.701-62.611-29.732L261.634 315h80.296l14.942 18.244.145.156c4.535 4.895 10.294 7.56 16.957 7.56h83.821a239.708 239.708 0 003.115-7zM19.23 145.71h87.197c4.816 0 8.862 1.885 12.149 5.647L135.439 172h41.187l28.614-34.922-25.278-30.873C160.923 84.741 138.269 74 112.011 74H66.667a241.47 241.47 0 00-6.446 7h51.79c24.015 0 44.794 9.694 62.624 29.748l21.557 26.328L173.312 165H138.76l-14.836-18.161-.077-.087c-4.554-5.214-10.493-8.042-17.42-8.042H22.358a238.014 238.014 0 00-3.127 7z" fill="#00D1FF"/><path d="M132.367 275.304c-8 0-14.944-1.504-20.832-4.512-5.888-3.072-10.368-7.264-13.44-12.576-3.072-5.376-4.608-11.424-4.608-18.144 0-7.04 1.856-13.408 5.568-19.104 3.712-5.696 9.024-10.176 15.936-13.44 6.976-3.328 15.104-4.992 24.384-4.992 7.232 0 13.824.896 19.776 2.688 5.952 1.792 10.88 4.352 14.784 7.68 3.904 3.328 6.528 7.296 7.872 11.904l-26.688 4.32c-2.624-6.208-8.032-9.312-16.224-9.312-6.336 0-11.168 1.792-14.496 5.376-3.328 3.52-4.992 8.384-4.992 14.592 0 5.824 1.696 10.464 5.088 13.92 3.456 3.392 8.32 5.088 14.592 5.088 3.904 0 7.264-.512 10.08-1.536 2.88-1.024 5.088-2.336 6.624-3.936 1.6-1.664 2.528-3.392 2.784-5.184v-.096h-22.464v-14.304h45.504V273h-18.72l-.864-11.328c-2.048 3.712-5.504 6.912-10.368 9.6-4.8 2.688-11.232 4.032-19.296 4.032zm139.437-38.496c5.184.768 9.12 2.56 11.808 5.376 2.688 2.752 4.032 6.432 4.032 11.04 0 3.456-.896 6.688-2.688 9.696-1.728 2.944-4.576 5.376-8.544 7.296-3.968 1.856-9.056 2.784-15.264 2.784H205.66v-68.16h55.104c8.32 0 14.592 1.504 18.816 4.512 4.288 3.008 6.432 7.168 6.432 12.48 0 3.648-1.184 6.816-3.552 9.504-2.368 2.688-5.92 4.512-10.656 5.472zm-41.568-16.8v11.424h23.04c2.56 0 4.384-.576 5.472-1.728 1.088-1.152 1.632-2.592 1.632-4.32 0-3.584-2.368-5.376-7.104-5.376h-23.04zm24 37.824c2.56 0 4.48-.64 5.76-1.92 1.344-1.28 2.016-2.848 2.016-4.704 0-1.856-.672-3.328-2.016-4.416-1.344-1.152-3.264-1.728-5.76-1.728h-24v12.768h24zm103.482-52.992c9.536 0 16.96 2.048 22.272 6.144 5.312 4.096 7.968 9.824 7.968 17.184 0 5.056-1.216 9.472-3.648 13.248-2.432 3.712-5.888 6.592-10.368 8.64-4.48 2.048-9.728 3.072-15.744 3.072h-23.712V273H309.91v-68.16h47.808zm-6.336 32.64c3.392 0 6.016-.736 7.872-2.208 1.856-1.472 2.784-3.584 2.784-6.336 0-2.752-.896-4.832-2.688-6.24-1.792-1.472-4.416-2.208-7.872-2.208h-16.992v16.992h16.896z" fill="#fff"/><defs><linearGradient id="paint0_linear" x1="240" y1="0" x2="240" y2="701.818" gradientUnits="userSpaceOnUse"><stop stop-color="#08021E"/><stop offset="1" stop-color="#1F0777"/></linearGradient></defs></svg>

<svg width="480" height="480" viewBox="0 0 480 480" fill="none" xmlns="http://www.w3.org/2000/svg">
<circle cx="240" cy="240" r="240" fill="url(#paint0_linear)"/>
<mask id="mask0" mask-type="alpha" maskUnits="userSpaceOnUse" x="0" y="0" width="480" height="480">
<circle cx="240" cy="240" r="240" fill="url(#paint1_linear)"/>
</mask>
<g mask="url(#mask0)">
<path fill-rule="evenodd" clip-rule="evenodd" d="M123.924 146.839L138.76 165H173.312L196.192 137.076L174.636 110.748C156.805 90.694 136.027 81 112.011 81H12V138.71H106.428C113.355 138.71 119.293 141.538 123.848 146.752L123.924 146.839ZM179.963 106.205L205.24 137.078L176.626 172H135.439L118.576 151.357C115.289 147.595 111.243 145.71 106.428 145.71H7.95094C7.07626 145.71 6.36061 145.433 5.82167 144.879C5.27389 144.334 5 143.717 5 143.056V76.6539C5 75.9927 5.27389 75.385 5.82167 74.831C6.36061 74.277 7.07626 74 7.95094 74H112.011C138.27 74 160.923 84.7408 179.963 106.205ZM123.852 332.909L123.701 333.071C119.042 338.081 113.205 340.951 106.428 340.951H12.3269V399H111.685C135.94 399 156.82 389.299 174.636 369.252L219.1 315H138.518L123.852 332.909ZM135.203 308H233.888L179.963 373.795C160.923 395.268 138.164 406 111.685 406H7.95094C7.07626 406 6.41363 405.723 5.9807 405.169C5.53894 404.615 5.3269 403.9 5.3269 403.007V336.605C5.3269 335.943 5.53894 335.336 5.9807 334.782C6.41363 334.228 7.07626 333.951 7.95094 333.951H106.428C111.022 333.951 115.068 332.074 118.576 328.303L135.203 308ZM362.153 328.643C365.439 332.19 369.371 333.96 373.974 333.96H472.451C473.325 333.96 473.979 334.237 474.421 334.791C474.854 335.345 475.075 336.069 475.075 336.944V403.346C475.075 404.007 474.854 404.624 474.421 405.169C473.979 405.723 473.325 406 472.451 406H368.717C342.238 406 319.585 395.268 300.766 373.795L246.848 308H345.245L362.153 328.643ZM341.93 315H261.635L306.106 369.268C323.696 389.299 344.46 399 368.717 399H468.075V340.96H373.974C367.312 340.96 361.552 338.295 357.018 333.4L356.872 333.244L341.93 315ZM361.826 151.357C365.112 147.595 369.159 145.71 373.974 145.71H472.451C473.325 145.71 473.979 145.433 474.421 144.879C474.854 144.334 475.075 143.717 475.075 143.056V76.6539C475.075 75.7693 474.854 75.108 474.421 74.6612C473.979 74.2234 473.325 74 472.451 74H368.717C342.238 74 319.479 84.6246 300.439 105.874L246.427 172H344.868L361.826 151.357ZM341.559 165L356.484 146.832L356.554 146.752C361.109 141.538 367.047 138.71 373.974 138.71H468.075V81H368.717C344.443 81 323.562 90.6107 305.758 110.428L261.183 165H341.559Z" fill="#00D1FF"/>
</g>
<path d="M132.367 275.304C124.367 275.304 117.423 273.8 111.535 270.792C105.647 267.72 101.167 263.528 98.0953 258.216C95.0233 252.84 93.4873 246.792 93.4873 240.072C93.4873 233.032 95.3433 226.664 99.0553 220.968C102.767 215.272 108.079 210.792 114.991 207.528C121.967 204.2 130.095 202.536 139.375 202.536C146.607 202.536 153.199 203.432 159.151 205.224C165.103 207.016 170.031 209.576 173.935 212.904C177.839 216.232 180.463 220.2 181.807 224.808L155.119 229.128C152.495 222.92 147.087 219.816 138.895 219.816C132.559 219.816 127.727 221.608 124.399 225.192C121.071 228.712 119.407 233.576 119.407 239.784C119.407 245.608 121.103 250.248 124.495 253.704C127.951 257.096 132.815 258.792 139.087 258.792C142.991 258.792 146.351 258.28 149.167 257.256C152.047 256.232 154.255 254.92 155.791 253.32C157.391 251.656 158.319 249.928 158.575 248.136V248.04H136.111V233.736H181.615V273H162.895L162.031 261.672C159.983 265.384 156.527 268.584 151.663 271.272C146.863 273.96 140.431 275.304 132.367 275.304Z" fill="white"/>
<path d="M271.804 236.808C276.988 237.576 280.924 239.368 283.612 242.184C286.3 244.936 287.644 248.616 287.644 253.224C287.644 256.68 286.748 259.912 284.956 262.92C283.228 265.864 280.38 268.296 276.412 270.216C272.444 272.072 267.356 273 261.148 273H205.66V204.84H260.764C269.084 204.84 275.356 206.344 279.58 209.352C283.868 212.36 286.012 216.52 286.012 221.832C286.012 225.48 284.828 228.648 282.46 231.336C280.092 234.024 276.54 235.848 271.804 236.808ZM230.236 220.008V231.432H253.276C255.836 231.432 257.66 230.856 258.748 229.704C259.836 228.552 260.38 227.112 260.38 225.384C260.38 221.8 258.012 220.008 253.276 220.008H230.236ZM254.236 257.832C256.796 257.832 258.716 257.192 259.996 255.912C261.34 254.632 262.012 253.064 262.012 251.208C262.012 249.352 261.34 247.88 259.996 246.792C258.652 245.64 256.732 245.064 254.236 245.064H230.236V257.832H254.236Z" fill="white"/>
<path d="M357.718 204.84C367.254 204.84 374.678 206.888 379.99 210.984C385.302 215.08 387.958 220.808 387.958 228.168C387.958 233.224 386.742 237.64 384.31 241.416C381.878 245.128 378.422 248.008 373.942 250.056C369.462 252.104 364.214 253.128 358.198 253.128H334.486V273H309.91V204.84H357.718ZM351.382 237.48C354.774 237.48 357.398 236.744 359.254 235.272C361.11 233.8 362.038 231.688 362.038 228.936C362.038 226.184 361.142 224.104 359.35 222.696C357.558 221.224 354.934 220.488 351.478 220.488H334.486V237.48H351.382Z" fill="white"/>
<defs>
<linearGradient id="paint0_linear" x1="240" y1="0" x2="240" y2="701.818" gradientUnits="userSpaceOnUse">
<stop stop-color="#08021E"/>
<stop offset="1" stop-color="#1F0777"/>
</linearGradient>
<linearGradient id="paint1_linear" x1="240" y1="0" x2="240" y2="701.818" gradientUnits="userSpaceOnUse">
<stop stop-color="#08021E"/>
<stop offset="1" stop-color="#1F0777"/>
</linearGradient>
</defs>
</svg>
